X: 617
T: Sparkling Blue Eyes.
T: gorm-rosg n-dri.t.ea.d.
R:air
N:"Moderate." "Collected from F. O'Neill."
B:O'Neill's 617
Z:Transcribed by John Walsh (walsh@math.ubc.ca)
M:C
L:1/8
%Q:70
K:G
(dc)|B2 B>G A2 {B}A>F|G2 G2 (A>G) F>G|B2 A>G A2 ((3GFE)|D2 ^C2 D2 d=c|
B2 B>G {B}A2 A>F|G2 G2 A>G F>G|B2 A>G A2 ((3Adc)|A2 G2 G2||
D>C| D2 (Dc) B2 c2|d2 (dc) B A3|B2 c2 d2 cA|GF D^C HD2 dc|
B2 B>G {B}A2 A>F|G2 G2 A>G F>G|B2 A>G A2 ((3Adc)|A2 G2 G2||


